X:1     
T:Bodmin Town
F:http://www.folkinfo.org/songs
B:Baring-Gould, A garland of Country Song, London 1895, (reprinted LLanerch)
Z:Baring-Gould
M:4/4     %Meter
L:1/8     %
K:G
D2 |(GA) (Bc) d2 d2 |e2 (dc) {B}B2 
w:In Bod-*min* town there lived a_ maid, 
d2 |B2 A2 (GB) d2 | e2 d2 A2
w:My inno-cent heart_ she had be-trayed:
 d2 |B2 (AG) (GB) (df) |e2 c2 Hd2 
w: I ne'er was_ wound_ ed_ so be-fore, 
d2 |B2 (AG) (Gg) (ec) | B2 A2 HG2  |]
w:And yet I_ love_ her_ more and more 
     